frontend/src/assets/icons/message-circle-02.svg

<svg width="24" height="24" viewBox="0 0 24 24" fill="none" xmlns="http://www.w3.org/2000/svg">
<g id="message-circle-02">
<path id="Icon" d="M21 12C21 16.9706 16.9706 21 12 21C10.8029 21 9.6603 20.7663 8.61549 20.3419C8.41552 20.2607 8.31554 20.2201 8.23472 20.202C8.15566 20.1843 8.09715 20.1778 8.01613 20.1778C7.9333 20.1778 7.84309 20.1928 7.66265 20.2229L4.10476 20.8159C3.73218 20.878 3.54589 20.909 3.41118 20.8512C3.29328 20.8007 3.19933 20.7067 3.14876 20.5888C3.09098 20.4541 3.12203 20.2678 3.18413 19.8952L3.77711 16.3374C3.80718 16.1569 3.82222 16.0667 3.82221 15.9839C3.8222 15.9028 3.81572 15.8443 3.798 15.7653C3.77988 15.6845 3.73927 15.5845 3.65806 15.3845C3.23374 14.3397 3 13.1971 3 12C3 7.02944 7.02944 3 12 3C16.9706 3 21 7.02944 21 12Z" stroke="black" stroke-width="2" stroke-linecap="round" stroke-linejoin="round"/>
</g>
</svg>

<svg xmlns="http://www.w3.org/2000/svg" width="24" height="24" fill="none" viewBox="0 0 24 24">
  <path stroke="#000" stroke-linecap="round" stroke-linejoin="round" stroke-width="2" d="M21 12a9 9 0 0 1-12.385 8.342c-.2-.081-.3-.122-.38-.14a.909.909 0 0 0-.219-.024 2.31 2.31 0 0 0-.353.045l-3.558.593c-.373.062-.56.093-.694.035a.5.5 0 0 1-.262-.262c-.058-.135-.027-.321.035-.694l.593-3.558c.03-.18.045-.27.045-.353a.907.907 0 0 0-.024-.219c-.018-.08-.059-.18-.14-.38A9 9 0 1 1 21 12Z"/>
</svg>
